src/icons/folder.assets.open.svg

<?xml version="1.0" encoding="UTF-8" standalone="no"?>
<!DOCTYPE svg PUBLIC "-//W3C//DTD SVG 1.1//EN" "http://www.w3.org/Graphics/SVG/1.1/DTD/svg11.dtd">
<!-- Created with Vectornator (http://vectornator.io/) -->
<svg height="100%" stroke-miterlimit="10" style="fill-rule:nonzero;clip-rule:evenodd;stroke-linecap:round;stroke-linejoin:round;" version="1.1" viewBox="0 0 32 32" width="100%" xml:space="preserve" xmlns="http://www.w3.org/2000/svg" xmlns:xlink="http://www.w3.org/1999/xlink">
<defs/>
<clipPath id="ArtboardFrame">
<rect height="32" width="32" x="0" y="0"/>
</clipPath>
<g clip-path="url(#ArtboardFrame)" id="Untitled">
<g opacity="0">
<path d="M20.2662 30.3302C20.2662 30.6331 20.539 30.8786 20.8756 30.8786L28.1883 30.8786C28.5248 30.8786 28.7977 30.6331 28.7977 30.3302C28.7977 30.2151 28.755 30.1054 28.688 30.0177L25.1413 24.4905L25.1413 22.1053L23.9225 22.1053L23.9225 24.4905L20.3759 30.0177C20.3088 30.1054 20.2662 30.2151 20.2662 30.3302M20.8756 31.9752C19.8659 31.9752 19.0474 31.2387 19.0474 30.3302C19.0474 30.0012 19.1571 29.6942 19.3521 29.4365L22.7037 24.1944L22.7037 23.2019C22.3672 23.2019 22.0943 22.9564 22.0943 22.6536L22.0943 22.1053C22.0943 21.4996 22.64 21.0086 23.3131 21.0086L25.7507 21.0086C26.4238 21.0086 26.9695 21.4996 26.9695 22.1053L26.9695 22.6536C26.9695 22.9564 26.6967 23.2019 26.3601 23.2019L26.3601 24.1944L29.7118 29.4365C29.9068 29.6942 30.0165 30.0012 30.0165 30.3302C30.0165 31.2387 29.1979 31.9752 28.1883 31.9752L20.8756 31.9752M19.9663 30.0118L23.1221 24.9457L23.4849 22.9653L23.5577 21.8619L24.7893 21.4798L25.7917 21.7965L25.8721 23.4641L26.0119 24.8635L27.6465 27.0684L29.2542 29.4428L29.6458 30.7934L27.6581 31.5148C27.6581 31.5148 21.0005 31.47 20.9739 31.47C20.9473 31.47 19.9042 30.836 19.9042 30.836L19.9663 30.0118Z" fill="#aa87cc" fill-rule="nonzero" opacity="1" stroke="none"/>
</g>
<path d="M24.4087 21.0149C21.3128 21.0137 18.8053 23.5199 18.8053 26.6133C18.8053 29.0595 20.3739 31.1388 22.5584 31.9025C22.8526 31.9763 22.8075 31.7673 22.8075 31.6245L22.8075 30.6543C21.1087 30.8534 21.0399 29.7292 20.926 29.5414C20.6956 29.1483 20.1511 29.0482 20.3138 28.8604C20.7006 28.6614 21.095 28.9105 21.5519 29.5852C21.8824 30.0747 22.5271 29.9921 22.8539 29.9107C22.9252 29.6165 23.0779 29.3536 23.2883 29.1496C21.5281 28.8341 20.7945 27.76 20.7945 26.4831C20.7945 25.8634 20.9986 25.2938 21.3992 24.8344C21.1438 24.077 21.423 23.4285 21.4605 23.3321C22.1879 23.267 22.944 23.8529 23.0028 23.8992C23.4159 23.7878 23.8879 23.729 24.4162 23.729C24.947 23.729 25.4202 23.7903 25.8371 23.903C25.9785 23.7953 26.6796 23.2921 27.3556 23.3534C27.3919 23.4498 27.6648 24.0833 27.4244 24.8306C27.83 25.2913 28.0366 25.8659 28.0366 26.4869C28.0366 27.7663 27.298 28.8416 25.5329 29.1521C25.8383 29.4524 26.0101 29.8629 26.0098 30.2913L26.0098 31.6997C26.0198 31.8123 26.0098 31.9237 26.1976 31.9237C28.4147 31.1764 30.0108 29.082 30.0108 26.6146C30.0108 23.5199 27.5021 21.0149 24.4087 21.0149Z" fill="#b7bbd4" fill-rule="nonzero" opacity="0" stroke="none"/>
<path d="M27.6321 21.0147L22.8097 25.4486L20.1148 23.4173L19.001 24.0655L21.6575 26.5066L19.001 28.9477L20.1148 29.5978L22.8097 27.5665L27.6321 31.9985L29.9846 30.8559L29.9846 22.1574L27.6321 21.0147ZM27.6321 23.9309L27.6321 29.0821L24.2138 26.5064L27.6321 23.9309Z" fill="#2196f3" fill-rule="nonzero" opacity="0" stroke="none"/>
<path d="M26.3228 29.5094L27.6313 31.0083L31.9923 26.0132L27.6313 21.0174L26.3228 22.517L29.3765 26.0132L26.3228 29.5094ZM24.687 22.517L23.3785 21.0174L19.0175 26.0132L23.3785 31.009L24.687 29.5101L21.6333 26.0132L24.687 22.517Z" fill="#88cc7e" fill-rule="nonzero" opacity="0" stroke="none"/>
<path d="M23.0017 20.9855L23 24.9297C23 24.9297 18.9952 29.0305 18.9615 31.8889L30.0014 31.8844C29.9906 29.0217 26 24.9606 26 24.9606L26 20.9852L23.0017 20.9855Z" fill="#e65c75" fill-rule="nonzero" opacity="0" stroke="none"/>
<path d="M24.9404 21.0833L20.6717 23.5472C20.5118 23.6394 20.4137 23.8096 20.4137 23.9936L20.4137 28.9248C20.4137 29.1089 20.5118 29.279 20.6717 29.3712L24.9407 31.837C25.1003 31.9289 25.297 31.9289 25.4564 31.837L29.7247 29.3712C29.8838 29.279 29.9821 29.1088 29.9821 28.9248L29.9821 23.9936C29.9821 23.8096 29.8838 23.6394 29.7237 23.5472L25.456 21.0833C25.376 21.0374 25.2868 21.0144 25.1976 21.0144C25.1085 21.0144 25.0193 21.0374 24.9393 21.0833" fill="#88cc7e" fill-rule="evenodd" opacity="0" stroke="none"/>
<path d="M24.9404 21.0833L20.6717 23.5472C20.5118 23.6394 20.4137 23.8096 20.4137 23.9936L20.4137 28.9248C20.4137 29.1089 20.5118 29.279 20.6717 29.3712L24.9407 31.837C25.1003 31.9289 25.297 31.9289 25.4564 31.837L29.7247 29.3712C29.8838 29.279 29.9821 29.1088 29.9821 28.9248L29.9821 23.9936C29.9821 23.8096 29.8838 23.6394 29.7237 23.5472L25.456 21.0833C25.376 21.0374 25.2868 21.0144 25.1976 21.0144C25.1085 21.0144 25.0193 21.0374 24.9393 21.0833" fill="#3e68ff" fill-rule="evenodd" opacity="0" stroke="none"/>
<path d="M20.6756 21.0068L22.2792 21.0068C23.1857 21.0068 23.9205 21.7416 23.9205 22.648L23.9205 24.2154C23.9205 25.1219 23.1857 25.8567 22.2792 25.8567L20.6756 25.8567C19.7692 25.8567 19.0343 25.1219 19.0343 24.2154L19.0343 22.648C19.0343 21.7416 19.7692 21.0068 20.6756 21.0068ZM26.7595 21.0117L28.3631 21.0117C29.2696 21.0117 30.0044 21.7465 30.0044 22.653L30.0044 24.2204C30.0044 25.1268 29.2696 25.8617 28.3631 25.8617L26.7595 25.8617C25.853 25.8617 25.1182 25.1268 25.1182 24.2204L25.1182 22.653C25.1182 21.7465 25.853 21.0117 26.7595 21.0117ZM26.7624 26.9909L28.366 26.9909C29.2725 26.9909 30.0073 27.7257 30.0073 28.6322L30.0073 30.1996C30.0073 31.106 29.2725 31.8408 28.366 31.8408L26.7624 31.8408C25.8559 31.8408 25.1211 31.106 25.1211 30.1996L25.1211 28.6322C25.1211 27.7257 25.8559 26.9909 26.7624 26.9909ZM20.6622 27.0219L22.2659 27.0219C23.1723 27.0219 23.9072 27.7567 23.9072 28.6632L23.9072 30.2306C23.9072 31.137 23.1723 31.8718 22.2659 31.8718L20.6622 31.8718C19.7558 31.8718 19.021 31.137 19.021 30.2306L19.021 28.6632C19.021 27.7567 19.7558 27.0219 20.6622 27.0219Z" fill="#bf98e6" fill-rule="nonzero" opacity="0" stroke="none"/>
<path d="M19.4309 21.0154L22.616 21.0154C22.8381 21.0154 23.0182 21.1943 23.0182 21.415L23.0182 24.6088C23.0182 24.8295 22.8381 25.0084 22.616 25.0084L19.4309 25.0084C19.2088 25.0084 19.0287 24.8295 19.0287 24.6088L19.0287 21.415C19.0287 21.1943 19.2088 21.0154 19.4309 21.0154ZM25.4413 21.0174L28.6264 21.0174C28.8485 21.0174 29.0286 21.1964 29.0286 21.4171L29.0286 24.6109C29.0286 24.8316 28.8485 25.0105 28.6264 25.0105L25.4413 25.0105C25.2191 25.0105 25.039 24.8316 25.039 24.6109L25.039 21.4171C25.039 21.1964 25.2191 21.0174 25.4413 21.0174ZM19.4019 27.0262L22.5869 27.0262C22.8091 27.0262 22.9892 27.2052 22.9892 27.4259L22.9892 30.6196C22.9892 30.8404 22.8091 31.0193 22.5869 31.0193L19.4019 31.0193C19.1797 31.0193 18.9996 30.8404 18.9996 30.6196L18.9996 27.4259C18.9996 27.2052 19.1797 27.0262 19.4019 27.0262ZM25.4383 27.0118L28.6233 27.0118C28.8455 27.0118 29.0256 27.1907 29.0256 27.4114L29.0256 30.6052C29.0256 30.8259 28.8455 31.0048 28.6233 31.0048L25.4383 31.0048C25.2161 31.0048 25.036 30.8259 25.036 30.6052L25.036 27.4114C25.036 27.1907 25.2161 27.0118 25.4383 27.0118Z" fill="#bf98e6" fill-rule="nonzero" opacity="0" stroke="none"/>
<path d="M25.286 30.0118L21.0155 30.0118L21.0155 28.9575L25.286 28.9575M28.0334 24.0227L21.0477 24.0227L21.0477 22.9864L28.0334 22.9864M28.7684 21.0356L20.2275 21.0356C19.5504 21.0356 19.0079 21.5736 19.0079 22.2438L19.0079 30.7052C19.0079 31.3725 19.554 31.9134 20.2275 31.9134L28.7684 31.9134C29.4422 31.9137 29.9886 31.3727 29.9886 30.7052L29.9886 22.2444C29.989 21.5769 29.4429 21.0356 28.7691 21.0356L28.7684 21.0356ZM27.1006 27.0653L21.0001 27.0653L21.0001 25.9795L27.1006 25.9795" fill="#0ec2e6" fill-rule="nonzero" opacity="0" stroke="none"/>
<path d="M25.286 30.0118L21.0155 30.0118L21.0155 28.9575L25.286 28.9575M28.0334 24.0227L21.0477 24.0227L21.0477 22.9864L28.0334 22.9864M28.7684 21.0356L20.2275 21.0356C19.5504 21.0356 19.0079 21.5736 19.0079 22.2438L19.0079 30.7052C19.0079 31.3725 19.554 31.9134 20.2275 31.9134L28.7684 31.9134C29.4422 31.9137 29.9886 31.3727 29.9886 30.7052L29.9886 22.2444C29.989 21.5769 29.4429 21.0356 28.7691 21.0356L28.7684 21.0356ZM27.1006 27.0653L21.0001 27.0653L21.0001 25.9795L27.1006 25.9795" fill="#d55952" fill-rule="nonzero" opacity="0" stroke="none"/>
<path d="M25.286 30.0118L21.0155 30.0118L21.0155 28.9575L25.286 28.9575M28.0334 24.0227L21.0477 24.0227L21.0477 22.9864L28.0334 22.9864M28.7684 21.0356L20.2275 21.0356C19.5504 21.0356 19.0079 21.5736 19.0079 22.2438L19.0079 30.7052C19.0079 31.3725 19.554 31.9134 20.2275 31.9134L28.7684 31.9134C29.4422 31.9137 29.9886 31.3727 29.9886 30.7052L29.9886 22.2444C29.989 21.5769 29.4429 21.0356 28.7691 21.0356L28.7684 21.0356ZM27.1006 27.0653L21.0001 27.0653L21.0001 25.9795L27.1006 25.9795" fill="#bf98e6" fill-rule="nonzero" opacity="0" stroke="none"/>
<path d="M20.2188 21.0312C19.5416 21.0312 19 21.5799 19 22.25L19 30.7188C19 31.386 19.5452 31.9062 20.2188 31.9062L28.7812 31.9062C29.4551 31.9066 30 31.3862 30 30.7188L30 22.25C30.0004 21.5825 29.4551 21.0313 28.7812 21.0312L20.2188 21.0312ZM21 25L28.0312 25L28.0312 30L21 30L21 25Z" fill="#0ec2e6" fill-rule="nonzero" opacity="0" stroke="none"/>
<g opacity="0">
<path d="M19.8502 21C19.4152 21 19.0625 21.35 19.0625 21.7817L19.0625 28.8417C19.0625 29.2734 19.4152 29.6234 19.8502 29.6234L20.6378 29.6234L20.6378 23.3696C20.6378 22.9379 20.9905 22.5879 21.4255 22.5879L27.7269 22.5879L27.7269 21.7817C27.7269 21.35 27.3743 21 26.9392 21L19.8502 21Z" fill="#b5485c" fill-rule="nonzero" opacity="1" stroke="none"/>
<path d="M23.1125 24.2081L29.3934 24.2081C29.778 24.2081 30.0898 24.5199 30.0898 24.9045L30.0898 31.1853C30.0898 31.57 29.778 31.8818 29.3934 31.8818L23.1125 31.8818C22.7279 31.8818 22.4161 31.57 22.4161 31.1853L22.4161 24.9045C22.4161 24.5199 22.7279 24.2081 23.1125 24.2081Z" fill="#e65c75" fill-rule="nonzero" opacity="1" stroke="none"/>
</g>
<path d="M19.0081 24.5108L20.6532 23.4346L23.4434 27.6997L21.7983 28.7759L19.0081 24.5108ZM20.6711 27.0399L29.7922 21.0729L30.9317 22.8146L21.8105 28.7816L20.6711 27.0399Z" fill="#88cc7e" fill-rule="nonzero" opacity="0" stroke="none"/>
<path d="M19.0463 24.0035L19.0463 29.6795L23.5207 31.8528L23.5207 26.1768L19.0463 24.0035ZM24.0577 20.0698L19.6467 22.2123L24.6874 24.6416L29.3851 22.2123L24.0577 20.0698ZM25.511 26.1768L25.511 31.8528L29.9854 29.6795L29.9854 24.0035L25.511 26.1768Z" fill="#88cc7e" fill-rule="nonzero" opacity="0" stroke="none"/>
<path d="M26.5339 29.1531L26.5339 29.1723C25.6304 29.134 24.5927 28.7769 23.8953 28.0795C23.1978 27.3821 22.8408 26.5888 22.8024 25.6661C22.8024 25.3258 22.7449 25.0622 22.6514 24.8369C22.5939 24.7434 22.2943 24.4031 22.2368 24.3288C21.9181 24.6308 21.5226 24.801 21.0505 24.801C20.0703 24.801 19.2986 24.0293 19.2986 23.0491C19.2986 22.0689 20.0703 21.2972 21.0505 21.2972C21.6904 21.2972 22.256 21.6567 22.558 22.1647L28.3073 22.1647C28.6093 21.6543 29.1749 21.2972 29.8148 21.2972C30.795 21.2972 31.5643 22.0593 31.5643 23.0395C31.5643 24.0197 30.7926 24.7914 29.8124 24.7914C29.1533 24.7914 28.6069 24.4319 28.3049 23.9238L24.1421 23.9238C24.4057 24.3744 24.5184 24.94 24.5375 25.6757C24.5567 26.1263 24.7269 26.5241 25.084 26.8812C25.441 27.2191 25.8365 27.4084 26.2894 27.4276L26.5531 27.4276C26.855 26.9171 27.4206 26.56 28.0605 26.56C29.0407 26.56 29.8124 27.3317 29.8124 28.3119C29.8124 29.2921 29.0407 30.0638 28.0605 30.0638C27.4206 30.0638 26.8742 29.7044 26.5339 29.1531Z" fill="#d3483e" fill-rule="nonzero" opacity="0" stroke="#d3483e" stroke-linecap="butt" stroke-linejoin="round" stroke-width="0.5"/>
<path d="M19.0289 25.148L29.982 25.148L29.982 27.8277L19.0289 27.8277L19.0289 25.148ZM25.8453 21.0113L25.8453 31.9644L23.1656 31.9644L23.1656 21.0113L25.8453 21.0113Z" fill="#e65c75" fill-rule="nonzero" opacity="0" stroke="none"/>
<g opacity="0">
<path d="M24.3938 21.0189L30.8671 21.0189C31.4625 21.0189 31.9452 21.5016 31.9452 22.097L31.9452 28.5704C31.9452 29.1658 31.4625 29.6484 30.8671 29.6484L24.3938 29.6484C23.7984 29.6484 23.3157 29.1658 23.3157 28.5704L23.3157 22.097C23.3157 21.5016 23.7984 21.0189 24.3938 21.0189Z" fill="#0ec2e6" fill-rule="nonzero" opacity="1" stroke="none"/>
<path d="M20.1046 21.0322C19.5092 21.0322 19.0265 21.5149 19.0265 22.1103L19.0265 28.5788C19.0265 29.1742 19.5092 29.6569 20.1046 29.6569L22.2271 29.6569C21.6317 29.6569 21.149 29.1742 21.149 28.5788L21.149 22.1103C21.149 21.5149 21.6317 21.0322 22.2271 21.0322L20.1046 21.0322Z" fill="#0ca1be" fill-rule="nonzero" opacity="1" stroke="none"/>
</g>
<path d="M15 4.03125L13 8.03125C13 8.03125 6 8.02025 6 8.03125C4.827 8.03125 4 8.84125 4 10.0312L4 16.0312L0 16.0312L6 26.0312L16.0312 26.0312L16.0312 21C16.0312 19.3431 17.3744 18 19.0312 18L23.1875 18L22 16.0312L6 16.0312L6 10.0312L14 10.0312L16 6.03125L28 6.03125L28 18L30 18L30 6.03125C30 4.92625 29.104 4.03125 28 4.03125C28 4.03125 15 4.03125 15 4.03125Z" fill="#e5c07b" fill-rule="nonzero" opacity="1" stroke="none"/>
<path d="M15 4.03125L12.9688 8C12.9688 8 6 8.02025 6 8.03125C4.828 8.03125 3.96875 8.84125 3.96875 10.0312L4 24C4 25.194 4.82125 26.0313 6.03125 26.0312L16.0312 26.0312L16.0312 21C16.0312 19.3431 17.3744 18 19.0312 18L30 18L30 6C30.0013 5.47049 29.7807 4.96817 29.4062 4.59375C29.0318 4.21933 28.5295 4.02992 28 4.03125L15 4.03125ZM16 6.03125L28 6.03125L28 8L15 8L16 6.03125Z" fill="#e5c07b" fill-rule="nonzero" opacity="0" stroke="none"/>
<path d="M28.004 4.02046C28.5335 4.01912 29.0417 4.22888 29.4162 4.60331C29.7906 4.97773 30.0003 5.48594 29.999 6.01546L29.992 24.0225C29.992 25.1795 29.168 26.0205 28.004 26.0205L28.004 6.02046L16.004 6.02046L14.994 8.01246L29.038 8.00246L28.004 26.0205L6.01701 26.0205C4.80701 26.0205 3.98601 25.2075 3.98601 24.0135L3.98001 10.0435C3.98001 8.85346 4.83401 8.01946 6.00601 8.01946C6.00601 8.00846 12.974 7.98746 12.974 7.98746L15.006 4.01946L28.006 4.01946L28.004 4.02046Z" fill="#4d9be9" fill-rule="nonzero" opacity="0" stroke="none"/>
<path d="M28.0111 4.03889C29.1151 4.03889 30.0061 4.92889 30.0061 6.03389L30.0111 24.0389C30.034 24.576 29.8306 25.0981 29.4505 25.4783C29.0703 25.8584 28.5482 26.0618 28.0111 26.0389L28.0111 6.03889L16.0111 6.03889L14.0111 10.0389L6.01108 10.0389L6.01108 16.0389L22.0111 16.0389L28.0111 26.0389L6.01108 26.0389L0.0110843 16.0389L4.01108 16.0389L4.01108 10.0389C4.01108 8.84889 4.83808 8.03889 6.01108 8.03889C6.01108 8.02789 13.0111 8.03889 13.0111 8.03889L15.0111 4.03889C15.0111 4.03889 28.0111 4.03889 28.0111 4.03889Z" fill="#4d9be9" fill-rule="nonzero" opacity="0" stroke="none"/>
<path d="M27.2095 16.0113L21.521 21.2416L18.342 18.8454L17.0282 19.6101L20.1618 22.4896L17.0282 25.3691L18.342 26.1361L21.521 23.7399L27.2095 28.9679L29.9846 27.6201L29.9846 17.3592L27.2095 16.0113ZM27.2095 19.4512L27.2095 25.5277L23.1773 22.4894L27.2095 19.4512Z" fill="#2196f3" fill-rule="nonzero" opacity="0" stroke="none"/>
<path d="M19.0227 18.0053L32.3696 18.0053C34.0265 18.0053 35.3696 19.3485 35.3696 21.0053L35.3696 32.2732C35.3696 33.93 34.0265 35.2732 32.3696 35.2732L19.0227 35.2732C17.3658 35.2732 16.0227 33.93 16.0227 32.2732L16.0227 21.0053C16.0227 19.3485 17.3658 18.0053 19.0227 18.0053Z" fill="#4d9be9" fill-rule="nonzero" opacity="0" stroke="none"/>
<path d="M22.9071 25.5258C22.9071 23.0404 24.9219 21.0256 27.4073 21.0256C29.8927 21.0256 31.9075 23.0404 31.9075 25.5258C31.9075 28.0112 29.8927 30.026 27.4073 30.026C24.9219 30.026 22.9071 28.0112 22.9071 25.5258Z" fill="#e65c75" fill-rule="nonzero" opacity="1" stroke="none"/>
<path d="M23.5312 21.0312C21.0459 21.0313 19.0312 23.0459 19.0312 25.5312C19.0313 28.0166 21.0459 30.0312 23.5312 30.0312C23.8964 30.0312 24.2226 29.9258 24.5625 29.8438C22.5886 29.3671 21.0938 27.6515 21.0938 25.5312C21.0938 23.411 22.5886 21.6954 24.5625 21.2188C24.2226 21.1367 23.8964 21.0312 23.5312 21.0312Z" fill="#b5485c" fill-rule="nonzero" opacity="1" stroke="none"/>
</g>
</svg>

<svg stroke-miterlimit="10" viewBox="0 0 32 32" xmlns="http://www.w3.org/2000/svg" clip-rule="evenodd"
  stroke-linecap="round" stroke-linejoin="round">
  <clipPath id="prefix__a">
    <path d="M0 0h32v32H0z" />
  </clipPath>
  <g clip-path="url(#prefix__a)">
    <path
      d="M15 4.031l-2 4s-7-.01-7 0c-1.173 0-2 .81-2 2v6H0l6 10h10.031V21a3 3 0 013-3h4.157L22 16.031H6v-6h8l2-4h12V18h2V6.031a2 2 0 00-2-2H15z"
      fill="#e5c07b" />
    <path d="M22.907 25.526a4.5 4.5 0 119 0 4.5 4.5 0 01-9 0z" fill="#e65c75" />
    <path
      d="M23.531 21.031a4.5 4.5 0 000 9c.365 0 .692-.105 1.032-.187-1.974-.477-3.47-2.193-3.47-4.313 0-2.12 1.496-3.836 3.47-4.312-.34-.082-.667-.188-1.032-.188z"
      fill="#b5485c" />
  </g>
</svg>
